X:46
T:Race Classic
R:polka
M:2/4
K:A
"A"A>B AE|FA E2|"Bm"FB BA/B/|"E"cB B2|
"A"A>B AE|FA E2|
"D"FB BA/B/|1 "E"cA Ac/B/:|2 "E"cA A2||
"A"e>f eA|"D"f2 f2|"Bm"Bf Bf|"E"g2 g2|
"C#m"cg cg|"F#m"a2 g>f|
"D"ec "E"BA/B/|1 cA A2:|2 cA Ac/B/||
